X: 34148
T: Reel Eugène
R: reel
M: 4/4
K: Bminor
"Bm"B2Bc dcB2|"Em"e2ef gece|"F#7"f2fg fede|fbbf bfdc|
"Bm"B2Bc dcB2|"Em"e2ef gece|"F#7"f2fg fedc|1 "Bm"B4 "F#7"F4:|2 "G"B4 "A7"A4||
|:"D"f2fe d2dB|AAdf "Do"b2g2|"Em"a2ag e2 ec|"A7"Aceg (3faf e2|
"D"f2fe d2dB|AAdf "Do"b2g2|"Em"a2ag egec|1 "A7"dfec "D"d3e:|2 "A7"dfec "D"d4||

